X:1
T:Title
%%score { ( 1 3 ) | ( 2 4 ) }
L:1/8
Q:1/4=108
M:12/8
K:Db
V:1 treble nm="Grand Piano"
V:3 treble 
V:2 bass 
V:4 bass 
V:1
 [Fd]3 AFA [Fd]3- [Fd]2 D | F2 A d2 [GB] [FA]3 F3 | e3 cAc e3- e2 e | %3
w: John~R.~Sweney * * * * * *|||
[M:25/16] [=Ge]2 [FGd] [EGc]2 [DGB] A2- [EA-] [A,DA-]2 [C_GA]3/2 |[M:6/4] z6 [Fd]6 | %5
w: ||
 A2 F G2 A c3 B3 | B3 B2 B e2 d c2 B | z2 z c3 z6 |[M:4/4] [FA]4 [DF]2 [Fd]2 | [FA]6 z2 | %10
w: |||||
 [CEG]2 [_C=DF]2 [=CEG]2 [A,CA]2 | [A,EG]4 [A,DF]4 | [DF]3 [DF] [DF]2 [Fd]2 | d3 c c4 | %14
w: ||||
 d2 c2 B2 [C=A]2 | [Ec]4[K:bass][K:treble] z4 | B4 A2 G2 | F4 [FA]4 | [Fd]3 [Fd] [Fd]2 [Fd]2 | %19
w: |||||
 d4 B4 | B4 A2 A2 | [Gc]3 [Gc] [Fd]4 | e4 d2 c-[Gc] | [Fd]6 z2 |] %24
w: |||||
V:2
 [D,A,]3 A,F,A, [D,A,]3- [D,A,]2 D, | F,2 A, D2 [D,D] [D,D]3 [D,A,D]3 | %2
 [A,CG]3 CA,C [A,CG]3- [A,CG]2 [A,CG] |[M:25/16][K:bass] [E,B,]2 E, E,2 E, A,2 G, F,2 E,3/2 | %4
[M:6/4] D,3 A,F,A, [D,A,]3 D,2 [D,F,D] | [D,F,D]2 [D,A,D] [E,A,C]2 [F,A,D] [G,D]3 [G,D]3 | %6
 [G,DG]3 [G,DG]2 [G,DG] [G,B,G]2 [G,B,G] [G,EG]2 [G,DG] | [A,DF]3[K:bass] [A,,A,]3 [D,A,]6 | %8
[M:4/4] [D,D]4 [D,A,]2 [D,A,]2 | [D,D]3 D, D,2 D,2 | A,,2 A,,2 A,,2 A,,2 | A,,2 C,2 D,4 | %12
 [B,,B,]3 [B,,B,] [B,,B,]2 [B,,B,]2 | [F,B,F]3 [F,=A,E] [F,A,E]4 | %14
 [F,B,F]2 [F,B,E]2 [F,D]2 [F,,F,]2 | F,4 [B,,F,]4 | [G,D]4 [F,A,D]2 [E,A,C]2 | [D,A,D]4 [D,D]4 | %18
 [D,_C]3 [D,C] [D,C]2 [D,C]2 | [G,G]4- [G,CG]4 | [G,D]4 [F,A,D]2 [F,A,D]2 | %21
 [E,A,]3 [E,A,] [D,A,]4 | [G,B,G]4 [A,F]2[K:bass] [A,,A,]2 | [D,A,]6 z2 |] %24
V:3
 x12 | x12 | x12 |[M:25/16] z6 C3 z3 z/ |[M:6/4] [DFd]3 AFA z2 z A,2 A | x12 | x12 | %7
 A3 E2 G [Fd]6 |[M:4/4] x8 | z2 z D D2 [A,DF]2 | x8 | x8 | x8 | x8 | x8 | %15
 z2[K:bass] =A,,2[K:treble] [DB]4 | x8 | x8 | x8 | x8 | x8 | x8 | z4 z2 .E2 | x8 |] %24
V:4
 x12 | x12 | x12 |[M:25/16][K:bass] x25/2 |[M:6/4] x12 | x12 | x12 | x3[K:bass] x9 |[M:4/4] x8 | %9
 x8 | x8 | x8 | x8 | x8 | x8 | F,,2 z2 z4 | x8 | x8 | x8 | B,4 z4 | x8 | x8 | x6[K:bass] x2 | x8 |] %24

